flaticon/education/diploma-2.svg

<svg xmlns="http://www.w3.org/2000/svg" width="32" height="32" viewBox="0 0 24 24">
    <path d="M 21.867188 12.640625 L 16.464844 7.238281 C 16.46875 7.03125 16.453125 6.820312 16.425781 6.613281 L 16.425781 4.398438 C 16.425781 1.960938 14.46875 0 12.027344 0 C 9.585938 0 7.628906 1.960938 7.628906 4.398438 L 7.628906 6.179688 C 7.542969 6.539062 7.503906 6.910156 7.507812 7.277344 L 2.105469 12.679688 C 2.027344 12.761719 1.988281 12.921875 2.027344 13.078125 C 2.066406 13.238281 2.1875 13.320312 2.347656 13.359375 L 5.386719 13.800781 L 5.828125 16.839844 C 5.867188 17 5.945312 17.121094 6.105469 17.160156 C 6.148438 17.199219 6.1875 17.199219 6.226562 17.199219 C 6.308594 17.199219 6.425781 17.160156 6.507812 17.078125 L 7.585938 16.015625 L 7.585938 19.601562 C 7.585938 22.039062 9.546875 24 11.988281 24 C 12.0625 24 12.140625 24 12.214844 23.996094 C 14.546875 23.878906 16.390625 21.964844 16.46875 19.601562 L 16.46875 16.121094 L 17.425781 17.078125 C 17.507812 17.160156 17.585938 17.199219 17.707031 17.199219 C 17.746094 17.199219 17.785156 17.199219 17.867188 17.121094 C 18.027344 17.078125 18.105469 16.960938 18.148438 16.800781 L 18.585938 13.761719 L 21.628906 13.320312 C 21.785156 13.28125 21.90625 13.199219 21.945312 13.039062 C 22.027344 12.921875 21.988281 12.761719 21.867188 12.640625 Z M 15.628906 7.71875 C 15.5 8.515625 15.152344 9.234375 14.585938 9.800781 C 14.507812 9.878906 14.425781 9.957031 14.335938 10.027344 C 13.90625 10.390625 13.40625 10.652344 12.859375 10.785156 C 12.804688 10.796875 12.75 10.808594 12.695312 10.820312 C 12.585938 10.839844 12.472656 10.859375 12.359375 10.867188 C 12.300781 10.875 12.246094 10.878906 12.1875 10.878906 L 11.785156 10.878906 C 10.867188 10.800781 10.027344 10.441406 9.386719 9.800781 C 8.867188 9.320312 8.546875 8.679688 8.386719 7.960938 L 8.425781 7.960938 L 8.425781 6.3125 C 8.585938 5.699219 8.90625 5.121094 9.386719 4.640625 C 10.105469 3.921875 11.066406 3.558594 11.988281 3.558594 C 12.90625 3.558594 13.867188 3.921875 14.585938 4.640625 C 15.167969 5.222656 15.515625 5.949219 15.628906 6.699219 Z M 8.425781 4.398438 C 8.425781 2.398438 10.027344 0.800781 12.027344 0.800781 C 14.027344 0.800781 15.628906 2.398438 15.628906 4.398438 L 15.628906 4.605469 C 15.484375 4.40625 15.324219 4.21875 15.148438 4.039062 C 13.386719 2.28125 10.585938 2.28125 8.828125 4.039062 C 8.679688 4.1875 8.546875 4.339844 8.425781 4.5 Z M 6.507812 15.960938 L 6.148438 13.398438 C 6.105469 13.199219 5.988281 13.078125 5.785156 13.039062 L 3.226562 12.679688 L 7.65625 8.332031 C 7.691406 8.460938 7.730469 8.59375 7.777344 8.71875 C 7.914062 9.128906 8.125 9.527344 8.386719 9.882812 C 8.390625 9.890625 8.394531 9.894531 8.398438 9.902344 C 8.421875 9.933594 8.445312 9.960938 8.46875 9.992188 C 8.480469 10.011719 8.496094 10.027344 8.511719 10.046875 C 8.527344 10.066406 8.542969 10.085938 8.558594 10.105469 C 8.578125 10.128906 8.59375 10.148438 8.613281 10.171875 C 8.632812 10.191406 8.648438 10.210938 8.667969 10.230469 C 8.683594 10.25 8.699219 10.269531 8.71875 10.285156 C 8.753906 10.324219 8.789062 10.363281 8.828125 10.398438 C 9.386719 10.960938 10.105469 11.359375 10.90625 11.558594 L 7.585938 14.878906 Z M 11.988281 23.199219 C 9.988281 23.199219 8.386719 21.601562 8.386719 19.601562 C 8.386719 17.601562 9.988281 16 11.988281 16 C 13.140625 16 14.15625 16.53125 14.8125 17.363281 C 14.816406 17.375 14.820312 17.386719 14.828125 17.398438 C 15.1875 18.160156 15.265625 19.039062 14.988281 19.839844 C 14.707031 20.640625 14.148438 21.320312 13.386719 21.679688 C 12.148438 22.28125 10.667969 21.761719 10.066406 20.558594 C 9.828125 20.121094 9.785156 19.601562 9.945312 19.121094 C 10.105469 18.640625 10.46875 18.28125 10.90625 18.039062 C 11.628906 17.679688 12.46875 17.960938 12.828125 18.679688 C 13.066406 19.199219 12.867188 19.839844 12.347656 20.121094 C 11.945312 20.28125 11.507812 20.160156 11.308594 19.761719 C 11.226562 19.601562 10.988281 19.519531 10.785156 19.601562 C 10.628906 19.679688 10.546875 19.921875 10.628906 20.121094 C 11.027344 20.921875 11.988281 21.238281 12.746094 20.839844 C 13.667969 20.359375 14.027344 19.238281 13.585938 18.320312 C 13.027344 17.199219 11.707031 16.761719 10.585938 17.320312 C 9.945312 17.640625 9.46875 18.199219 9.226562 18.878906 C 9.027344 19.558594 9.066406 20.28125 9.386719 20.921875 C 9.945312 22.039062 11.105469 22.71875 12.308594 22.71875 C 12.785156 22.71875 13.308594 22.601562 13.707031 22.398438 C 14.414062 22.046875 14.992188 21.496094 15.375 20.832031 C 14.875 22.21875 13.554688 23.199219 11.988281 23.199219 Z M 15.585938 17.0625 C 14.792969 15.933594 13.480469 15.199219 11.988281 15.199219 C 10.496094 15.199219 9.179688 15.933594 8.386719 17.0625 L 8.386719 15.226562 L 11.984375 11.679688 C 11.984375 11.679688 11.988281 11.679688 11.988281 11.679688 C 12 11.679688 12.011719 11.679688 12.027344 11.679688 L 15.585938 15.238281 Z M 18.105469 13.078125 C 17.945312 13.078125 17.828125 13.238281 17.785156 13.398438 L 17.425781 15.960938 L 16.46875 15 L 16.46875 14.921875 L 13.105469 11.558594 C 13.867188 11.398438 14.628906 10.960938 15.1875 10.398438 C 15.746094 9.839844 16.140625 9.148438 16.332031 8.386719 L 20.667969 12.71875 Z M 18.105469 13.078125"/>
</svg>

<svg xmlns="http://www.w3.org/2000/svg" width="32" height="32" viewBox="0 0 24 24">
    <path d="M21.867 12.64l-5.402-5.402a4.197 4.197 0 0 0-.04-.625V4.398A4.385 4.385 0 0 0 12.028 0 4.385 4.385 0 0 0 7.63 4.398V6.18c-.086.36-.125.73-.121 1.097L2.105 12.68c-.078.082-.117.242-.078.398.04.16.16.242.32.281l3.04.442.441 3.039c.04.16.117.281.277.32.043.04.082.04.122.04.082 0 .199-.04.28-.122l1.079-1.062v3.586A4.389 4.389 0 0 0 11.988 24c.075 0 .153 0 .227-.004 2.332-.117 4.176-2.031 4.254-4.394v-3.48l.957.956c.082.082.16.121.281.121.04 0 .078 0 .16-.078.16-.043.238-.16.281-.32l.438-3.04 3.043-.44c.156-.04.277-.122.316-.282.082-.117.043-.277-.078-.398zM15.63 7.72A3.749 3.749 0 0 1 14.586 9.8a2.78 2.78 0 0 1-.25.226 3.6 3.6 0 0 1-1.64.793c-.11.02-.223.04-.337.047a1.27 1.27 0 0 1-.171.012h-.403c-.918-.078-1.758-.438-2.398-1.078-.52-.48-.84-1.121-1-1.84h.039V6.312c.16-.613.48-1.19.96-1.671a3.705 3.705 0 0 1 2.602-1.082 3.703 3.703 0 0 1 3.64 3.14zm-7.203-3.32c0-2 1.601-3.598 3.601-3.598s3.602 1.597 3.602 3.597v.207a5.05 5.05 0 0 0-.48-.566 4.447 4.447 0 0 0-6.32 0c-.15.149-.282.3-.403.461zM6.508 15.96l-.36-2.563a.427.427 0 0 0-.363-.359l-2.558-.36 4.43-4.347c.034.129.073.262.12.387.137.41.348.808.61 1.164.004.008.008.012.011.02.024.03.047.058.07.09.012.019.028.034.044.054l.047.058.054.067c.02.02.035.039.055.058.016.02.031.04.05.055a4.42 4.42 0 0 0 2.188 1.273l-3.32 3.32zm5.48 7.238c-2 0-3.601-1.597-3.601-3.597S9.988 16 11.988 16c1.153 0 2.168.531 2.825 1.363.003.012.007.024.015.035.36.762.438 1.641.16 2.442-.281.8-.84 1.48-1.601 1.84a2.498 2.498 0 0 1-3.32-1.121 1.807 1.807 0 0 1-.122-1.438c.16-.48.524-.84.961-1.082a1.416 1.416 0 0 1 1.922.64c.238.52.04 1.16-.48 1.442-.403.16-.84.04-1.04-.36-.081-.16-.32-.241-.523-.16-.156.079-.238.32-.156.52.398.8 1.36 1.117 2.117.719a1.91 1.91 0 0 0 .84-2.52 2.214 2.214 0 0 0-3-1c-.64.32-1.117.88-1.36 1.559-.199.68-.16 1.402.16 2.043a3.284 3.284 0 0 0 2.923 1.797c.476 0 1-.117 1.398-.32a3.965 3.965 0 0 0 1.668-1.567 3.584 3.584 0 0 1-3.387 2.367zm3.598-6.137a4.38 4.38 0 0 0-3.598-1.863 4.387 4.387 0 0 0-3.601 1.864v-1.836l3.597-3.547h.044l3.558 3.558zm2.52-3.984c-.16 0-.278.16-.32.32l-.36 2.563-.957-.961v-.078l-3.364-3.363c.762-.16 1.524-.598 2.082-1.16a4.334 4.334 0 0 0 1.145-2.012l4.336 4.332zm0 0"/>
</svg>
